X: 40224
T: Tiny The Trooper
R: slip jig
M: 9/8
K: Edorian
E2 G FED E2 B|eee dBd efe|cAA BGG A2 B|GEE FDD E2 D:|
G2 G BGB d2 B|GAG GAB BAA|G2 G BGB d2 B|ABA ABA GED|
G2 G BGB d2 B|GAG GAB BAA|G2 G BGB g2 e|dBB BAB GEE||
gfg fdB f2 B|gfg efg fed|gfg fdB f2 e|dBB BAB GEE|
gfg fdB f2 B|gfg efg fed|gfg afd a2 f|edB BAB GEE||

